X: 91
T:Mazurka a Rigal
M:3/4
L:1/8
C:Traditional
R:Mazurka
Z:Steve Mansfield
K:D min
GB |: d3d ed | B3d ed | A2 AB cA | B2A2GB | d2^cd ed | B3d ed |
A2Ac AB |1 G4GB :|2 G4GA |: BA Bc AB | G3A GF | ED AB cA |
B2A2GA | BA Bc AB | G3A GF | EDAc BA |1 G3D GA :|2 G4GB || G6 ||

